assets/illustrations/multisize/32/accdb.svg

<svg id="63c3b496-4c1a-4897-afb2-c90e6c4bfeeb" data-name="ICONS" xmlns="http://www.w3.org/2000/svg" xmlns:xlink="http://www.w3.org/1999/xlink" viewBox="0 0 32 32"><defs><linearGradient id="e3fd4291-fb09-4f9d-8cf3-177b536c1856" x1="5.0842" y1="3.60755" x2="27.96138" y2="30.87151" gradientUnits="userSpaceOnUse"><stop offset="0" stop-color="#fff" stop-opacity="0"/><stop offset="0.86247" stop-color="#5e5e5e" stop-opacity="0.06315"/><stop offset="1" stop-opacity="0.1"/></linearGradient><linearGradient id="21292e07-407d-4f31-b4e5-b1ac2e8d12a2" x1="22.14788" y1="9.10212" x2="26.11437" y2="5.13563" gradientUnits="userSpaceOnUse"><stop offset="0" stop-color="#fff" stop-opacity="0"/><stop offset="0.44604" stop-color="#fff" stop-opacity="0.00799"/><stop offset="0.63551" stop-color="#fff" stop-opacity="0.03616"/><stop offset="0.77636" stop-color="#fff" stop-opacity="0.08493"/><stop offset="0.8924" stop-color="#fff" stop-opacity="0.15385"/><stop offset="0.99328" stop-color="#fff" stop-opacity="0.24291"/><stop offset="1" stop-color="#fff" stop-opacity="0.25"/></linearGradient><linearGradient id="1211e28a-cfe0-482d-8349-b001f927934a" x1="9.5" y1="26.4375" x2="9.5" y2="9.52504" gradientUnits="userSpaceOnUse"><stop offset="0" stop-color="#fff" stop-opacity="0"/><stop offset="0.52587" stop-color="#fff" stop-opacity="0.00735"/><stop offset="0.71529" stop-color="#fff" stop-opacity="0.03396"/><stop offset="0.8503" stop-color="#fff" stop-opacity="0.0803"/><stop offset="0.95875" stop-color="#fff" stop-opacity="0.14595"/><stop offset="1" stop-color="#fff" stop-opacity="0.18"/></linearGradient><linearGradient id="e91404d0-9931-4267-bc23-c4b76808b04e" x1="11.28178" y1="29.35196" x2="11.61734" y2="26.21204" gradientUnits="userSpaceOnUse"><stop offset="0" stop-color="#828282" stop-opacity="0"/><stop offset="0.86247" stop-color="#303030" stop-opacity="0.12631"/><stop offset="1" stop-opacity="0.2"/></linearGradient><linearGradient id="508c2754-a1bd-41a0-97c8-27f99ceb88d9" x1="25" y1="10.9375" x2="25" y2="9.05834" gradientUnits="userSpaceOnUse"><stop offset="0" stop-color="#828282" stop-opacity="0"/><stop offset="0.86247" stop-color="#303030" stop-opacity="0.06315"/><stop offset="1" stop-opacity="0.1"/></linearGradient></defs><title>FileTypeIcons_Master_All_NEW</title><polygon points="28 29 8 29 8 3 23 3 28 8 28 29" fill="#fff"/><path d="M23,2H7V30H29V8Zm0,1.5L27.5,8H23ZM28,29H8V3H22V9h6Z" fill="#949494"/><path d="M25,17v8H16V17h9m1-1H15V26H26V16Z" fill="#c8c8c8"/><path d="M21,12v4H13V12h8m1-1H12v6H22V11Z" fill="#c8c8c8"/><polygon points="3 11 16 9 16 27 3 25 3 11" fill="#a4373a"/><path d="M14,22H11.76113l-.64876-1.77964H7.86855L7.22615,22H5l3.32014-8h2.436Zm-3.3583-3.16318-.97951-2.689a3.12368,3.12368,0,0,1-.15265-.71967H9.45866a2.72532,2.72532,0,0,1-.159.69735l-.99223,2.7113Z" fill="#fff"/><rect x="16" y="16" width="10" height="2" fill="#f7a8ab"/><rect x="16" y="11" width="6" height="2" fill="#f7a8ab"/><rect x="17" y="21" width="2" height="1" fill="#f7a8ab"/><rect x="20" y="21" width="4" height="1" fill="#c8c8c8"/><rect x="17" y="19" width="2" height="1" fill="#f7a8ab"/><rect x="20" y="19" width="4" height="1" fill="#c8c8c8"/><rect x="17" y="14" width="3" height="1" fill="#c8c8c8"/><rect x="17" y="23" width="2" height="1" fill="#f7a8ab"/><rect x="20" y="23" width="4" height="1" fill="#c8c8c8"/><path d="M29,8,23,2H7V30H29Z" fill="url(#e3fd4291-fb09-4f9d-8cf3-177b536c1856)"/><polygon points="7 2 7 3 22 3 22 9 28 9 28 24.5 29 24.5 29 8 23 2 7 2" fill="url(#21292e07-407d-4f31-b4e5-b1ac2e8d12a2)"/><polygon points="16 9 3 11 3 25 16 27 16 9" fill="url(#1211e28a-cfe0-482d-8349-b001f927934a)"/><polygon points="16 29 7 29 7 25.62 16 27 16 29" fill="url(#e91404d0-9931-4267-bc23-c4b76808b04e)"/><rect x="22" y="9" width="6" height="2" fill="url(#508c2754-a1bd-41a0-97c8-27f99ceb88d9)"/></svg>

<?xml version="1.0" encoding="utf-8"?>
<!-- Generator: Adobe Illustrator 21.1.0, SVG Export Plug-In . SVG Version: 6.00 Build 0)  -->
<svg version="1.1" xmlns="http://www.w3.org/2000/svg" xmlns:xlink="http://www.w3.org/1999/xlink" x="0px" y="0px"
	 viewBox="0 0 32 32" enable-background="new 0 0 32 32" xml:space="preserve">
<g id="TEMPLATE" display="none">
	<g display="inline">
		<path fill="#D0D0D0" d="M32,0v32H0V0H32 M33-1h-1H0h-1v1v32v1h1h32h1v-1V0V-1L33-1z"/>
	</g>
	<g display="inline" opacity="0.1">
		<path fill="#FF3A6D" d="M30,2v28H2V2H30 M32,0H0v32h32V0L32,0z"/>
	</g>
</g>
<g id="ICONS">
	<g>
		<polygon fill="#FFFFFF" points="28,29 8,29 8,3 23,3 28,8 		"/>
		<path fill="#949494" d="M23,2H7v28h22V8L23,2z M23,3.5L27.5,8H23V3.5z M28,29H8V3h14v6h6V29z"/>
	</g>
	<g>
		<path fill="#C8C8C8" d="M25,17v8h-9v-8H25 M26,16H15v10h11V16L26,16z"/>
	</g>
	<g>
		<path fill="#C8C8C8" d="M21,12v4h-8v-4H21 M22,11H12v6h10V11L22,11z"/>
	</g>
	<polygon fill="#A4373A" points="3,11 16,9 16,27 3,25 	"/>
	<g>
		<path fill="#FFFFFF" d="M14,22h-2.2389l-0.6488-1.7796H7.8686L7.2261,22H5l3.3201-8h2.436L14,22z M10.6417,18.8368l-0.9795-2.689
			c-0.0721-0.2008-0.123-0.4407-0.1526-0.7197H9.4587c-0.0212,0.2343-0.0742,0.4668-0.159,0.6973l-0.9922,2.7113H10.6417z"/>
	</g>
	<rect x="16" y="16" fill="#F7A8AB" width="10" height="2"/>
	<rect x="16" y="11" fill="#F7A8AB" width="6" height="2"/>
	<rect x="17" y="21" fill="#F7A8AB" width="2" height="1"/>
	<g>
		<rect x="20" y="21" fill="#C8C8C8" width="4" height="1"/>
	</g>
	<rect x="17" y="19" fill="#F7A8AB" width="2" height="1"/>
	<g>
		<rect x="20" y="19" fill="#C8C8C8" width="4" height="1"/>
	</g>
	<g>
		<rect x="17" y="14" fill="#C8C8C8" width="3" height="1"/>
	</g>
	<rect x="17" y="23" fill="#F7A8AB" width="2" height="1"/>
	<g>
		<rect x="20" y="23" fill="#C8C8C8" width="4" height="1"/>
	</g>
	<linearGradient id="SVGID_1_" gradientUnits="userSpaceOnUse" x1="5.0842" y1="3.6075" x2="27.9614" y2="30.8715">
		<stop  offset="0" style="stop-color:#FFFFFF;stop-opacity:0"/>
		<stop  offset="0.2264" style="stop-color:#FCFCFC;stop-opacity:0.0226"/>
		<stop  offset="0.3626" style="stop-color:#F4F4F4;stop-opacity:0.0363"/>
		<stop  offset="0.475" style="stop-color:#E6E6E6;stop-opacity:0.0475"/>
		<stop  offset="0.5744" style="stop-color:#D1D1D1;stop-opacity:0.0574"/>
		<stop  offset="0.6652" style="stop-color:#B7B7B7;stop-opacity:0.0665"/>
		<stop  offset="0.7498" style="stop-color:#979797;stop-opacity:0.075"/>
		<stop  offset="0.8297" style="stop-color:#707070;stop-opacity:0.083"/>
		<stop  offset="0.9057" style="stop-color:#444444;stop-opacity:0.0906"/>
		<stop  offset="0.9761" style="stop-color:#121212;stop-opacity:0.0976"/>
		<stop  offset="1" style="stop-color:#000000;stop-opacity:0.1"/>
	</linearGradient>
	<path fill="url(#SVGID_1_)" d="M29,8l-6-6H7v28h22V8z"/>
	<linearGradient id="SVGID_2_" gradientUnits="userSpaceOnUse" x1="22.1479" y1="9.1021" x2="26.1144" y2="5.1356">
		<stop  offset="0" style="stop-color:#FFFFFF;stop-opacity:0"/>
		<stop  offset="0.8537" style="stop-color:#FFFFFF;stop-opacity:0.2134"/>
		<stop  offset="1" style="stop-color:#FFFFFF;stop-opacity:0.25"/>
	</linearGradient>
	<polygon fill="url(#SVGID_2_)" points="7,2 7,3 22,3 22,9 28,9 28,24.5 29,24.5 29,8 23,2 	"/>
	<linearGradient id="SVGID_3_" gradientUnits="userSpaceOnUse" x1="9.5" y1="26.4375" x2="9.5" y2="9.525">
		<stop  offset="0" style="stop-color:#FFFFFF;stop-opacity:0"/>
		<stop  offset="0.8587" style="stop-color:#FFFFFF;stop-opacity:0.1546"/>
		<stop  offset="1" style="stop-color:#FFFFFF;stop-opacity:0.18"/>
	</linearGradient>
	<polygon fill="url(#SVGID_3_)" points="16,9 3,11 3,25 16,27 	"/>
	<linearGradient id="SVGID_4_" gradientUnits="userSpaceOnUse" x1="11.2818" y1="29.352" x2="11.6173" y2="26.212">
		<stop  offset="0" style="stop-color:#828282;stop-opacity:0"/>
		<stop  offset="0.2812" style="stop-color:#7F7F7F;stop-opacity:0.0562"/>
		<stop  offset="0.4503" style="stop-color:#777777;stop-opacity:0.0901"/>
		<stop  offset="0.5899" style="stop-color:#696969;stop-opacity:0.118"/>
		<stop  offset="0.7133" style="stop-color:#545454;stop-opacity:0.1427"/>
		<stop  offset="0.8259" style="stop-color:#3A3A3A;stop-opacity:0.1652"/>
		<stop  offset="0.9294" style="stop-color:#1A1A1A;stop-opacity:0.1859"/>
		<stop  offset="1" style="stop-color:#000000;stop-opacity:0.2"/>
	</linearGradient>
	<polygon fill="url(#SVGID_4_)" points="16,29 7,29 7,25.62 16,27 	"/>
	<linearGradient id="SVGID_5_" gradientUnits="userSpaceOnUse" x1="25" y1="10.9375" x2="25" y2="9.0583">
		<stop  offset="0" style="stop-color:#828282;stop-opacity:0"/>
		<stop  offset="0.2812" style="stop-color:#7F7F7F;stop-opacity:0.0281"/>
		<stop  offset="0.4503" style="stop-color:#777777;stop-opacity:0.045"/>
		<stop  offset="0.5899" style="stop-color:#696969;stop-opacity:0.059"/>
		<stop  offset="0.7133" style="stop-color:#545454;stop-opacity:0.0713"/>
		<stop  offset="0.8259" style="stop-color:#3A3A3A;stop-opacity:0.0826"/>
		<stop  offset="0.9294" style="stop-color:#1A1A1A;stop-opacity:0.0929"/>
		<stop  offset="1" style="stop-color:#000000;stop-opacity:0.1"/>
	</linearGradient>
	<rect x="22" y="9" fill="url(#SVGID_5_)" width="6" height="2"/>
</g>
</svg>
